src/images/logo.svg

<svg xmlns="http://www.w3.org/2000/svg" width="1000" height="373"><g transform="translate(-.606 .462)"><svg xmlns="http://www.w3.org/2000/svg" xmlns:xlink="http://www.w3.org/1999/xlink" width="1000" height="373" data-background-color="#ffffff" viewBox="0 0 396 148"><g transform="translate(.24 -.183)"><svg width="395.52" height="148.366" viewBox="0 0 395.52 148.366"><g><svg width="395.52" height="148.366" viewBox="0 0 395.52 148.366"><g><svg width="395.52" height="148.366" viewBox="0 0 395.52 148.366"><g><svg width="395.52" height="148.366" viewBox="0 0 395.52 148.366"><g><path fill="none" stroke="#8dbdff" stroke-width="9.018" d="M0 0h395.52v109.731H0z" data-fill-palette-color="none" data-stroke-palette-color="tertiary"/><path fill="#8dbdff" d="M0 109.731h395.52v38.635H0z" data-fill-palette-color="tertiary"/></g><g><svg width="395.52" height="109.731" viewBox="0 0 395.52 109.731"><g transform="translate(23.608 23.608)"><svg width="348.305" height="62.516" data-palette-color="#8dbdff" viewBox="0 -50 243.74 43.75"><path fill="#8dbdff" d="M37.5-6.25H6.25v-6.25H0v-6.25h12.5v6.25h18.75V-25h-25v-6.25H0v-12.5h6.25V-50H37.5v6.25h6.25v6.25h-12.5v-6.25H12.5v12.5h25V-25h6.25v12.5H37.5v6.25Zm25 0H50V-50h12.5v18.75h6.25v-6.25H75v-6.25h6.25V-50h12.5v6.25H87.5v6.25h-6.25v6.25H75V-25h6.25v6.25h6.25v6.25h6.25v6.25H75v-6.25h-6.25v-6.25H62.5v12.5Zm75 0h-31.25v-6.25H100V-50h12.5v37.5h18.75V-50h12.5v37.5h-6.25v6.25Zm56.24 0h-37.5V-50h12.5v37.5h25v6.25Zm50 0h-37.5V-50h12.5v37.5h25v6.25Z" class="undefined-text-0" data-fill-palette-color="primary"/></svg></g></svg></g></svg></g></svg></g></svg></g></svg></g></svg></g></svg>

<svg xmlns="http://www.w3.org/2000/svg" version="1.1" xmlns:xlink="http://www.w3.org/1999/xlink" xmlns:svgjs="http://svgjs.dev/svgjs" width="1000" height="373" viewBox="0 0 1000 373"><g transform="matrix(1,0,0,1,-0.6060606060606233,0.46182223409562084)"><svg viewBox="0 0 396 148" data-background-color="#ffffff" preserveAspectRatio="xMidYMid meet" height="373" width="1000" xmlns="http://www.w3.org/2000/svg" xmlns:xlink="http://www.w3.org/1999/xlink"><defs></defs><g id="tight-bounds" transform="matrix(1,0,0,1,0.2400000000000091,-0.18324313846153473)"><svg viewBox="0 0 395.52 148.36648627692307" height="148.36648627692307" width="395.52"><g><svg viewBox="0 0 395.52 148.36648627692307" height="148.36648627692307" width="395.52"><g><svg viewBox="0 0 395.52 148.36648627692307" height="148.36648627692307" width="395.52"><g><svg viewBox="0 0 395.52 148.36648627692307" height="148.36648627692307" width="395.52"><g><rect width="395.52" height="109.73144615384615" fill="none" stroke-width="9.018103199999999" stroke="#8dbdff" data-fill-palette-color="none" data-stroke-palette-color="tertiary"></rect><rect width="395.52" height="38.63504012307693" y="109.73144615384615" fill="#8dbdff" data-fill-palette-color="tertiary"></rect></g><g><svg viewBox="0 0 395.52 109.73144615384615" height="109.73144615384615" width="395.52"><g transform="matrix(1,0,0,1,23.607599999999998,23.607599999999998)"><svg width="348.3048" viewBox="0 -50 243.74000549316406 43.75" height="62.516246153846154" data-palette-color="#8dbdff"><path d="M37.5-6.25L6.25-6.25 6.25-12.5 0-12.5 0-18.75 12.5-18.75 12.5-12.5 31.25-12.5 31.25-25 6.25-25 6.25-31.25 0-31.25 0-43.75 6.25-43.75 6.25-50 37.5-50 37.5-43.75 43.75-43.75 43.75-37.5 31.25-37.5 31.25-43.75 12.5-43.75 12.5-31.25 37.5-31.25 37.5-25 43.75-25 43.75-12.5 37.5-12.5 37.5-6.25ZM62.5-6.25L50-6.25 50-50 62.5-50 62.5-31.25 68.75-31.25 68.75-37.5 75-37.5 75-43.75 81.25-43.75 81.25-50 93.75-50 93.75-43.75 87.5-43.75 87.5-37.5 81.25-37.5 81.25-31.25 75-31.25 75-25 81.25-25 81.25-18.75 87.5-18.75 87.5-12.5 93.75-12.5 93.75-6.25 75-6.25 75-12.5 68.75-12.5 68.75-18.75 62.5-18.75 62.5-6.25ZM137.5-6.25L106.25-6.25 106.25-12.5 100-12.5 100-50 112.5-50 112.5-12.5 131.25-12.5 131.25-50 143.75-50 143.75-12.5 137.5-12.5 137.5-6.25ZM193.74-6.25L156.24-6.25 156.24-50 168.74-50 168.74-12.5 193.74-12.5 193.74-6.25ZM243.74-6.25L206.24-6.25 206.24-50 218.74-50 218.74-12.5 243.74-12.5 243.74-6.25Z" opacity="1" transform="matrix(1,0,0,1,0,0)" fill="#8dbdff" class="undefined-text-0" data-fill-palette-color="primary" id="text-0"></path></svg></g></svg></g></svg></g></svg></g><g></g></svg></g></svg><rect width="395.52" height="148.36648627692307" fill="none" stroke="none" visibility="hidden"></rect></g></svg></g></svg>
